src/assets/filled/RepeateOne.svg

<svg width="24" height="24" viewBox="0 0 24 24"  xmlns="http://www.w3.org/2000/svg">
<path d="M3.91 17.1799C3.72 17.1799 3.53 17.1099 3.38 16.9599C2.01 15.5799 1.25 13.7599 1.25 11.8299C1.25 7.81993 4.5 4.55993 8.5 4.55993L14.57 4.57993L13.48 3.53993C13.18 3.24993 13.17 2.77993 13.46 2.47993C13.75 2.17993 14.22 2.16993 14.52 2.45993L16.96 4.79993C17.18 5.00993 17.25 5.33993 17.14 5.61993C17.03 5.89993 16.75 6.08993 16.44 6.08993L8.5 6.06993C5.33 6.06993 2.75 8.65993 2.75 11.8399C2.75 13.3699 3.35 14.8199 4.44 15.9099C4.73 16.1999 4.73 16.6799 4.44 16.9699C4.29 17.1099 4.1 17.1799 3.91 17.1799Z" />
<path d="M9.9999 21.75C9.8099 21.75 9.6299 21.68 9.4799 21.54L7.0399 19.2C6.8199 18.99 6.7499 18.66 6.8599 18.38C6.9799 18.1 7.2599 17.95 7.5599 17.91L15.5099 17.93C18.6799 17.93 21.2599 15.34 21.2599 12.16C21.2599 10.63 20.6599 9.18 19.5699 8.09C19.2799 7.8 19.2799 7.32 19.5699 7.03C19.8599 6.74 20.3399 6.74 20.6299 7.03C21.9999 8.41 22.7599 10.23 22.7599 12.16C22.7599 16.17 19.5099 19.43 15.5099 19.43L9.4399 19.41L10.5299 20.45C10.8299 20.74 10.8399 21.21 10.5499 21.51C10.3899 21.67 10.1999 21.75 9.9999 21.75Z" />
<path d="M12.25 15.4201C11.84 15.4201 11.5 15.0801 11.5 14.6701V11.2801L11.31 11.4901C11.03 11.8001 10.56 11.8201 10.25 11.5501C9.94 11.2801 9.92 10.8001 10.19 10.4901L11.69 8.82007C11.9 8.59007 12.23 8.51007 12.52 8.62007C12.81 8.74007 13 9.01007 13 9.33007V14.6801C13 15.0901 12.66 15.4201 12.25 15.4201Z" />
</svg>

<?xml version="1.0" encoding="UTF-8"?>
<svg width="24" height="24" viewBox="0 0 24 24" xmlns="http://www.w3.org/2000/svg">
 <path d="m3.91 17.18c-0.19 0-0.38-0.07-0.53-0.22-1.37-1.38-2.13-3.2-2.13-5.13 0-4.01 3.25-7.27 7.25-7.27l6.07 0.02-1.09-1.04c-0.3-0.29-0.31-0.76-0.02-1.06s0.76-0.31 1.06-0.02l2.44 2.34c0.22 0.21 0.29 0.54 0.18 0.82s-0.39 0.47-0.7 0.47l-7.94-0.02c-3.17 0-5.75 2.59-5.75 5.77 0 1.53 0.6 2.98 1.69 4.07 0.29 0.29 0.29 0.77 0 1.06-0.15 0.14-0.34 0.21-0.53 0.21z"/>
 <path d="m9.9999 21.75c-0.19 0-0.37-0.07-0.52-0.21l-2.44-2.34c-0.22-0.21-0.29-0.54-0.18-0.82 0.12-0.28 0.4-0.43 0.7-0.47l7.95 0.02c3.17 0 5.75-2.59 5.75-5.77 0-1.53-0.6-2.98-1.69-4.07-0.29-0.29-0.29-0.77 0-1.06s0.77-0.29 1.06 0c1.37 1.38 2.13 3.2 2.13 5.13 0 4.01-3.25 7.27-7.25 7.27l-6.07-0.02 1.09 1.04c0.3 0.29 0.31 0.76 0.02 1.06-0.16 0.16-0.35 0.24-0.55 0.24z"/>
 <path d="m12.25 15.42c-0.41 0-0.75-0.34-0.75-0.75v-3.39l-0.19 0.21c-0.28 0.31-0.75 0.33-1.06 0.06s-0.33-0.75-0.06-1.06l1.5-1.67c0.21-0.23 0.54-0.31 0.83-0.2 0.29 0.12 0.48 0.39 0.48 0.71v5.35c0 0.41-0.34 0.74-0.75 0.74z"/>
</svg>
